!!!OTL: Tujia changqi fengshouge
!!!ARE: Asia, China,ÿHunan Sangzhi
!! Ethnic Group: Tujia
!! I, 503
!!!SCT: C2179
!!!YEM: Copyright 1995, estate of Helmut Schaffrath.
**kern
*ICvox
*Ivox
!! Mixed meters:  2/4; 3/4
*M3/4
*k[]
*C:
{8cc
8a
8cc
8a
=1
2g
=2
8ee
8cc
8ee
8cc
=3
2dd}
=4
{8ee
8a
8ee
8a
=5
4cc
8ee
8a
=6
8g
8g
4a
=7
2g}
=8
{8cc
8a
8cc
8a
=9
2g
=10
8ee
4cc
8ee
=11
8cc
8a
4.g
8a}
=12
*M2/4
{8cc
8a
8cc
8a
=13
4g
4r
=14
8cc
8a
8ee
8cc
=15
2dd}
=16
{8ee
8a
8ee
8a
=17
4cc
8ee
8a
=18
8g
8g
4a
=19
2g}
==
!!!AGN: Shange
!!!ONB: ESAC (Essen Associative Code) Database: SENGANSU
!!!AMT: irregular
!!!AIN: vox
!!!EED: Helmut Schaffrath
!!!EEV: 1.0
*-
